X: 1101
T: Hüseynî Peşrev
C: Kul Mehmet
O: Turkey
F: http://compmusic.upf.edu/node/140
N: huseyni--pesrev--devrikebir----kul_mehmet
N: makam= huseyni
N: form= pesrev
N: usul= devrikebir = 28/4
M: 28/4
L: 1/16
K: C _2/4B ^3/4f  
Q: 1/4=81
%%MIDI tuningsystem comma53
e4 d4 e8  | g3f e2=f2 e2^3/4f2 d4  | \
w:  1. HANE  |   | 
g3f g2a2 a8  | g3f e2=f2 e6z2  | 
w:   |   | 
e4 =f2g2 f3e d2e2  | d4 d2d2 d4 e2=f2  | \
w:   |   | 
e4 d2e2 d2c2 B4  | c2d2 c4 d2e2 d2e2  | 
w:   |   | 
d4 e2=f2 e6z2  | d8 c4 B4  | c4 d4 c4 B4  | \
w:   |   |   | 
e3d c2d2 c4 B4  | A3G A2B2 c4 d4  | 
w:   |   | 
c2d2 c2d2 e6z2  | e4 d4 e8  | g3f e2=f2 e2^3/4f2 d4  | \
w:   |   |   | 
g3f g2a2 a8  | 
w:   | 
g3f e2=f2 e6z2  | e4 =f2g2 f3e d2e2  | \
w:   |   | 
d4 d2d2 d4 e2=f2  | e4 d2e2 d2c2 B2c2  | 
w:   |   | 
c8 G2A2 B2d2  | c6z2 g8  | d2e2 f2g2 f4 g2a2  | \
w:   |   |   | 
g2f4g2 e6z2  | g2f4g2 f3e d2e2  | 
w:   |   | 
e4 g2f2 g2e6  | e3d c2d2 c3B A4  | A4 G4 A8  | \
w:   |   |  2. HANE  | 
c3B A2^A2 =A6z2  | 
w:   | 
g4 a4 a6z2  | g3f g2a2 g4 a2=b2  | a2g2 f8 d4  | \
w:   |   |   | 
a2g2 a4 g3f g2a2  | 
w:   | 
a12 g4  | a4 b4 c'8  | c'8 b4 c'2d'2  | \
w:   |   |   | 
c'3b a4 a6z2  | g4 f4 g4 a4  | g4 a2b2 a2g2 f4  | 
w:   |   |   | 
g3f e2=f2 e2a2 g2a2  | f2g2 e2=f2 e2d2 ^c4  | \
w:   |   | 
d6z2 e3d e2f2  | 
w:   | 
g4 a4 g3f g2a2  | a12 g4  | a4 b4 d'2c'4d'2  | \
w:   |   |   | 
c'2b4c'2 a6z2  | g4 f4 g4 a4  | 
w:   |   | 
g4 a2=b2 a2g2 f2g2  | e6z2 g3f e2g2  | \
w:   |   | 
f8 f4 g2a2  | f2g2 f2e2 d4 e2f2  | 
w:   |   | 
d2f2 e8 g4  | f2a2 g2f2 e2g2 f2e2  | \
w:   |   | 
d2=f2 e2d2 c2e2 d2c2  | B2d2 c2B2 A6z2  | 
w:   |   | 
G8 A8  | B4 c4 B2c2 B4  | c4 d4 c2d2 c4  | \
w:  3. HANE  |   |   | 
d4 e4 d2e2 d4  | e4 f4 e2f2 e4  | 
w:   |   | 
f4 g4 f6z2  | a2g2 a4 g3f g2a2  | a8 b4 c'4  | \
w:   |   |   | 
a8 a6z2  | a6b2 a2g2 f4  | 
w:   |   | 
g4 f4 g4 a4  | g4 a2b2 a2g2 f4  | g3f e2=f2 e2a2 g2a2  | \
w:   |   |   | 
f2g2 e2=f2 e2d2 ^c4  | 
w:   | 
d6z2 e3d e2f2  | g4 a4 g3f g2a2  | a8 a4 g4  | \
w:   |   |   | 
a4 b4 d'2c'4d'2  | c'2b4c'2 a6z2  | 
w:   |   | 
g4 f4 g4 a4  | g4 a2=b2 a2g2 f2g2  | \
w:   |   | 
e6z2 g3f e2g2  | f12 g2a2  | f2g2 f2e2 d4 e2f2  | 
w:   |   |   | 
d4 e12  | e6z2 a4 g2a2  | g2f2 e8 f4  | \
w:   |   |   | 
g2a2 f2g2 a8  | g8 a8  | b4 c'4 b2c'2 b4  | 
w:   |  4. HANE  |   | 
c'4 d'4 c'2d'4c'2  | b8 b6z2  | c'4 d'4 d'6z2  | \
w:   |   |   | 
c'6d'2 c'4 d'4  | b6c'2 b4 c'4  | a8 b4 c'4  | 
w:   |   |   | 
a8 a6z2  | a6b2 a2g2 f4  | g4 f4 g4 a4  | \
w:   |   |   | 
g4 a2b2 a2g2 f4  | g3f e2=f2 e2a2 g2a2  | 
w:   |   | 
f2g2 e2=f2 e2d2 ^c4  | d6z2 e3d e2f2  | \
w:   |   | 
g4 a4 g3f g2a2  | a12 g4  | 
w:   |   | 
a4 b4 d'2b4d'2  | c'2b4c'2 a4 z4  | g4 f4 g4 a4  | \
w:   |   |   | 
g4 a2=b2 a2g2 f2g2  | 
w:   | 
e6z2 g2f2 e4  | e8 f4 g4  | f4 e4 d4 e4  | \
w:   |   |   | 
d4 e8 g4  | f2a2 g2f2 e2g2 f2e2  | 
w:   |   | 
d2=f2 e2d2 c2e2 d2c2  | B2d2 c2B2 A8  | |


